packages/foundations/assets/icons/functional/images/audio & video/microphone.svg

<svg xmlns="http://www.w3.org/2000/svg" width="32" height="32" fill="none"><path fill="#1A1C1F" fill-rule="evenodd" d="M14.961 2.112c-1.141.254-2.188.906-2.883 1.793-.383.49-.787 1.319-.943 1.935l-.122.48v4.587c0 4.585 0 4.586.121 5.059.494 1.94 1.909 3.404 3.777 3.907.56.15 1.71.138 2.316-.025a4.96 4.96 0 0 0 2.373-1.401c.632-.667 1.002-1.329 1.265-2.265.118-.418.119-.465.137-4.822.013-3.12 0-4.524-.043-4.825-.295-2.047-1.778-3.797-3.689-4.353-.527-.153-1.766-.191-2.309-.07m1.603 1.945c.824.149 1.669.772 2.062 1.522.367.702.359.578.359 5.354 0 4.696.003 4.643-.314 5.272-.573 1.135-1.563 1.787-2.705 1.782-1.351-.007-2.53-.942-2.872-2.278-.12-.474-.121-8.807 0-9.284.224-.886.91-1.751 1.683-2.122a2.76 2.76 0 0 1 1.787-.246M7.46 14.179c-.369.234-.448.443-.439 1.154.016 1.319.43 2.807 1.124 4.047a9.08 9.08 0 0 0 6.228 4.467l.614.115V28l-1.08.001c-.936.001-1.109.014-1.294.1-.904.417-.76 1.663.217 1.872.174.038 1.309.052 3.331.042L19.227 30l.226-.121c.558-.298.715-1.037.317-1.49-.309-.352-.458-.387-1.677-.388L17.013 28v-4.038l.614-.115a9.04 9.04 0 0 0 7.031-6.407c.314-1.092.424-2.501.226-2.901-.246-.495-.936-.669-1.424-.36-.342.217-.43.435-.482 1.191-.122 1.784-.745 3.214-1.946 4.469A6.87 6.87 0 0 1 16 21.989a6.87 6.87 0 0 1-5.032-2.15c-1.204-1.257-1.824-2.681-1.946-4.469-.052-.756-.14-.974-.482-1.191a.84.84 0 0 0-.54-.152.84.84 0 0 0-.54.152"/></svg>

<svg width="32" height="32" viewBox="0 0 32 32" fill="none" xmlns="http://www.w3.org/2000/svg"><path d="M14.961 2.112 C 13.820 2.366,12.773 3.018,12.078 3.905 C 11.695 4.395,11.291 5.224,11.135 5.840 L 11.013 6.320 11.013 10.907 C 11.013 15.492,11.013 15.493,11.134 15.966 C 11.628 17.906,13.043 19.370,14.911 19.873 C 15.471 20.023,16.621 20.011,17.227 19.848 C 18.168 19.595,18.949 19.133,19.600 18.447 C 20.232 17.780,20.602 17.118,20.865 16.182 C 20.983 15.764,20.984 15.717,21.002 11.360 C 21.015 8.240,21.002 6.836,20.959 6.535 C 20.664 4.488,19.181 2.738,17.270 2.182 C 16.743 2.029,15.504 1.991,14.961 2.112 M16.564 4.057 C 17.388 4.206,18.233 4.829,18.626 5.579 C 18.993 6.281,18.985 6.157,18.985 10.933 C 18.985 15.629,18.988 15.576,18.671 16.205 C 18.098 17.340,17.108 17.992,15.966 17.987 C 14.615 17.980,13.436 17.045,13.094 15.709 C 12.974 15.235,12.973 6.902,13.094 6.425 C 13.318 5.539,14.004 4.674,14.777 4.303 C 15.373 4.017,15.922 3.941,16.564 4.057 M7.460 14.179 C 7.091 14.413,7.012 14.622,7.021 15.333 C 7.037 16.652,7.451 18.140,8.145 19.380 C 9.448 21.706,11.742 23.351,14.373 23.847 L 14.987 23.962 14.987 25.981 L 14.987 28.000 13.907 28.001 C 12.971 28.002,12.798 28.015,12.613 28.101 C 11.709 28.518,11.853 29.764,12.830 29.973 C 13.004 30.011,14.139 30.025,16.161 30.015 L 19.227 30.000 19.453 29.879 C 20.011 29.581,20.168 28.842,19.770 28.389 C 19.461 28.037,19.312 28.002,18.093 28.001 L 17.013 28.000 17.013 25.981 L 17.013 23.962 17.627 23.847 C 21.003 23.211,23.704 20.750,24.658 17.440 C 24.972 16.348,25.082 14.939,24.884 14.539 C 24.638 14.044,23.948 13.870,23.460 14.179 C 23.118 14.396,23.030 14.614,22.978 15.370 C 22.856 17.154,22.233 18.584,21.032 19.839 C 19.696 21.234,17.930 21.989,16.000 21.989 C 14.070 21.989,12.304 21.234,10.968 19.839 C 9.764 18.582,9.144 17.158,9.022 15.370 C 8.970 14.614,8.882 14.396,8.540 14.179 C 8.349 14.058,8.238 14.027,8.000 14.027 C 7.762 14.027,7.651 14.058,7.460 14.179 " fill="#1A1C1F" stroke="none" fill-rule="evenodd"></path></svg>
